svg/set_all.svg

<svg xmlns="http://www.w3.org/2000/svg" viewBox="0 0 24 24"><path d="M9 5c1.04 0 2.06.24 3 .68.94-.44 1.96-.68 3-.68a7 7 0 0 1 7 7 7 7 0 0 1-7 7c-1.04 0-2.06-.24-3-.68-.94.44-1.96.68-3 .68a7 7 0 0 1-7-7 7 7 0 0 1 7-7m-.5 7c0 1.87.79 3.56 2.06 4.75l1-.46c-1.25-1-2.06-2.55-2.06-4.29s.81-3.29 2.06-4.29l-1-.46A6.5 6.5 0 0 0 8.5 12m7 0c0-1.87-.79-3.56-2.06-4.75l-1 .46c1.25 1 2.06 2.55 2.06 4.29s-.81 3.29-2.06 4.29l1 .46A6.5 6.5 0 0 0 15.5 12"/></svg>

<?xml version="1.0" encoding="UTF-8"?><!DOCTYPE svg PUBLIC "-//W3C//DTD SVG 1.1//EN" "http://www.w3.org/Graphics/SVG/1.1/DTD/svg11.dtd"><svg xmlns="http://www.w3.org/2000/svg" xmlns:xlink="http://www.w3.org/1999/xlink" version="1.1" id="mdi-set-all" width="24" height="24" viewBox="0 0 24 24"><path d="M9,5C10.04,5 11.06,5.24 12,5.68C12.94,5.24 13.96,5 15,5A7,7 0 0,1 22,12A7,7 0 0,1 15,19C13.96,19 12.94,18.76 12,18.32C11.06,18.76 10.04,19 9,19A7,7 0 0,1 2,12A7,7 0 0,1 9,5M8.5,12C8.5,13.87 9.29,15.56 10.56,16.75L11.56,16.29C10.31,15.29 9.5,13.74 9.5,12C9.5,10.26 10.31,8.71 11.56,7.71L10.56,7.25C9.29,8.44 8.5,10.13 8.5,12M15.5,12C15.5,10.13 14.71,8.44 13.44,7.25L12.44,7.71C13.69,8.71 14.5,10.26 14.5,12C14.5,13.74 13.69,15.29 12.44,16.29L13.44,16.75C14.71,15.56 15.5,13.87 15.5,12Z" /></svg>
